X:1
T:Title
%%score { 1 | ( 2 3 ) }
L:1/8
M:2/4
K:A
V:1 treble nm="Grand Piano"
V:2 bass 
V:3 bass 
V:1
 z2 z[Q:1/4=82] [CE] | [CE][CA] [CA]>[DB] | [Ec][DB] [CA]>[EG] | [DF][DF] [^DB]>[FA] | [EG]3 [DF] | %5
 [CE][CA] [CA]>B | c[Ee] [EGB]>[E=Gc] | [DFd][A,DF] [DF][B,DG] | [A,CA]3 [CA] | %9
 [GB][GB] [GB]>[Ac] | [Bd][Ac] [GB]>[GB] | [Ac][Ae] [EBd][EAc] | [EGB]3 [Ec] | [Fd][Fd] [Ec]>[DB] | %14
[M:9/16] [CA][EG]/-[EG]/[DF]-[DF]/[FA]/F/ |[M:2/4] E<A A>B | [CA]3 [CA] | [Ec]>[DB] [CA][DF] | E4 | %19
 [GB]>[=G^A] [^GB][=Ac] | [GB]3 c | [Fd][Fd] c>B |[M:9/16] A[EG]/-[EG]/[DF]-[DF]/[FA]/F/ | %23
[M:2/4] E<A A>B |[M:3/8] [CA]3 |] %25
V:2
 z2 z [A,,A,] | [A,,A,][A,,A,] [A,,A,]>[A,,A,] | [A,,A,][A,,A,] [A,,A,]>[A,,A,] | %3
 [D,A,][D,A,] [B,,B,]>[B,,B,] | [E,B,]3 [E,G,] | [A,,A,][A,,A,] [A,,A,]>[E,G,E] | %6
 [A,E][C,A,] E,>A, | D,D, D,E, | A,,3 A, | [E,E][E,E] [E,E]>[E,E] | [E,E][E,E] [E,E]>[E,E] | %11
 [A,E][A,C] G,A, | E,3 A, | [D,A,][D,A,] [A,,A,]>[E,G,] | %14
[M:9/16] [F,A,][C,A,]/-[C,A,]/[D,A,]-[D,A,]/ z/ D/ |[M:2/4] [E,A,C]<[E,A,C] [E,A,C]>[E,G,D] | %16
 [A,,A,]3 [A,,A,] | [A,,A,]>[A,,A,] [A,,A,][A,,A,] | [A,,A,]4 | [E,E]>[E,E] [E,E][E,E] | %20
 [E,E]3 [A,A] | [D,A,][D,A,] [A,E]>[E,G,D] |[M:9/16] [F,A,C][C,A,]/-[C,A,]/[D,A,]-[D,A,]/ z/ D/ | %23
[M:2/4] [E,A,C]<[E,A,C] [E,C]>[E,D] |[M:3/8] [A,,E,]3 |] %25
V:3
 x4 | x4 | x4 | x4 | x4 | x4 | x4 | x4 | x4 | x4 | x4 | x4 | x4 | x4 | %14
[M:9/16] z3/2 z3/2 z/ [D,A,] |[M:2/4] x4 | x4 | x4 | x4 | x4 | x4 | x4 | %22
[M:9/16] z3/2 z3/2 z/ [D,A,] |[M:2/4] x4 |[M:3/8] x3 |] %25

